src/img/HomePage/Logo/DesktopTheCult.svg

<?xml version="1.0" encoding="UTF-8"?> <svg xmlns="http://www.w3.org/2000/svg" width="314" height="140" viewBox="0 0 314 140" fill="none"> <path d="M23.8735 139.014H8.36594V14.9859H0V0.985915H32.2395V14.9859H23.8735V139.014Z" fill="#201B19"></path> <path d="M57.4202 139.014H41.7085V0.985915H57.4202V60.1409H64.3578V0.985915H80.0694V139.014H64.3578V74.338H57.4202V139.014Z" fill="#201B19"></path> <path d="M107.834 15.1831V60.1409H118.445V74.338H107.834V124.817H121.505V139.014H92.1226V0.985915H121.505V15.1831H107.834Z" fill="#201B19"></path> <path d="M170 18.5352V121.465C170 123.174 170.136 124.357 170.408 125.014C170.816 125.54 171.632 125.803 172.857 125.803H173.877C175.101 125.803 175.917 125.54 176.326 125.014C176.734 124.357 176.938 123.174 176.938 121.465V78.8732H191.425V123.239C191.425 129.812 190.405 134.282 188.364 136.648C186.324 138.883 182.243 140 176.121 140H169.796C163.675 140 159.526 138.883 157.349 136.648C155.309 134.282 154.288 129.812 154.288 123.239V16.7606C154.288 10.1878 155.309 5.78404 157.349 3.5493C159.526 1.1831 163.675 0 169.796 0H176.121C182.243 0 186.324 1.1831 188.364 3.5493C190.405 5.78404 191.425 10.1878 191.425 16.7606V55.2113H176.938V18.5352C176.938 16.8263 176.734 15.7089 176.326 15.1831C175.917 14.5258 175.101 14.1972 173.877 14.1972H172.857C171.632 14.1972 170.816 14.5258 170.408 15.1831C170.136 15.7089 170 16.8263 170 18.5352Z" fill="#201B19"></path> <path d="M218.82 0.985915V121.465C218.82 123.174 219.024 124.357 219.432 125.014C219.84 125.54 220.656 125.803 221.881 125.803H222.697C223.921 125.803 224.737 125.54 225.145 125.014C225.553 124.357 225.758 123.174 225.758 121.465V0.985915H240.449V123.239C240.449 129.812 239.361 134.282 237.184 136.648C235.144 138.883 231.063 140 224.941 140H218.616C212.494 140 208.346 138.883 206.169 136.648C204.129 134.282 203.108 129.812 203.108 123.239V0.985915H218.82Z" fill="#201B19"></path> <path d="M252.332 139.014V0.985915H268.043V124.817H279.674V139.014H252.332Z" fill="#201B19"></path> <path d="M305.634 139.014H290.126V14.9859H281.761V0.985915H314V14.9859H305.634V139.014Z" fill="#201B19"></path> </svg>

<svg xmlns="http://www.w3.org/2000/svg" width="314" height="140" fill="none"><path d="M23.873 139.014H8.367V14.986H0v-14h32.24v14h-8.367v124.028ZM57.42 139.014H41.708V.986H57.42V60.14h6.938V.986h15.711v138.028H64.358V74.338H57.42v64.676ZM107.834 15.183v44.958h10.611v14.197h-10.611v50.479h13.671v14.197H92.123V.986h29.382v14.197h-13.671ZM170 18.535v102.93c0 1.709.136 2.892.408 3.549.408.526 1.224.789 2.449.789h1.02c1.224 0 2.04-.263 2.449-.789.408-.657.612-1.84.612-3.549V78.873h14.487v44.366c0 6.573-1.02 11.043-3.061 13.409-2.04 2.235-6.121 3.352-12.243 3.352h-6.325c-6.121 0-10.27-1.117-12.447-3.352-2.04-2.366-3.061-6.836-3.061-13.409V16.761c0-6.573 1.021-10.977 3.061-13.212C159.526 1.183 163.675 0 169.796 0h6.325c6.122 0 10.203 1.183 12.243 3.55 2.041 2.234 3.061 6.638 3.061 13.21v38.451h-14.487V18.535c0-1.709-.204-2.826-.612-3.352-.409-.657-1.225-.986-2.449-.986h-1.02c-1.225 0-2.041.329-2.449.986-.272.526-.408 1.643-.408 3.352ZM218.82.986v120.479c0 1.709.204 2.892.612 3.549.408.526 1.224.789 2.449.789h.816c1.224 0 2.04-.263 2.448-.789.408-.657.613-1.84.613-3.549V.985h14.691V123.24c0 6.573-1.088 11.043-3.265 13.409-2.04 2.235-6.121 3.352-12.243 3.352h-6.325c-6.122 0-10.27-1.117-12.447-3.352-2.04-2.366-3.061-6.836-3.061-13.409V.986h15.712ZM252.332 139.014V.986h15.711v123.831h11.631v14.197h-27.342ZM305.634 139.014h-15.508V14.986h-8.365v-14H314v14h-8.366v124.028Z" fill="#201B19"/></svg>
